dist/images/icons/arrow-right.svg

<svg width="15" height="13" viewBox="0 0 15 13" fill="none" xmlns="http://www.w3.org/2000/svg">
<path fill-rule="evenodd" clip-rule="evenodd" d="M8.30806 0.183058C8.55214 -0.0610194 8.94786 -0.0610194 9.19194 0.183058L14.8169 5.80806C15.061 6.05214 15.061 6.44786 14.8169 6.69194L9.19194 12.3169C8.94786 12.561 8.55214 12.561 8.30806 12.3169C8.06398 12.0729 8.06398 11.6771 8.30806 11.4331L13.4911 6.25L8.30806 1.06694C8.06398 0.822864 8.06398 0.427136 8.30806 0.183058Z" fill="#868F98"/>
<path fill-rule="evenodd" clip-rule="evenodd" d="M0 6.25C0 5.90482 0.279822 5.625 0.625 5.625H14.375C14.7202 5.625 15 5.90482 15 6.25C15 6.59518 14.7202 6.875 14.375 6.875H0.625C0.279822 6.875 0 6.59518 0 6.25Z" fill="#868F98"/>
</svg>

<svg width="15" height="13" fill="none" xmlns="http://www.w3.org/2000/svg"><path fill-rule="evenodd" clip-rule="evenodd" d="M8.308.183a.625.625 0 01.884 0l5.625 5.625a.625.625 0 010 .884l-5.625 5.625a.625.625 0 11-.884-.884l5.183-5.183-5.183-5.183a.625.625 0 010-.884z" fill="#868F98"/><path fill-rule="evenodd" clip-rule="evenodd" d="M0 6.25c0-.345.28-.625.625-.625h13.75a.625.625 0 110 1.25H.625A.625.625 0 010 6.25z" fill="#868F98"/></svg>
